Gardener/gardener.svg

<svg width="322" height="323" viewBox="0 0 322 323" fill="none" xmlns="http://www.w3.org/2000/svg">
<path fill-rule="evenodd" clip-rule="evenodd" d="M156.664 9.95179C158.625 9.00403 160.908 9.00402 162.869 9.95179L281.534 67.3215C283.495 68.2693 284.919 70.0616 285.403 72.1912L314.711 201.099C315.195 203.229 314.687 205.464 313.33 207.172L231.211 310.548C229.854 312.256 227.797 313.251 225.621 313.251H93.9122C91.7361 313.251 89.6787 312.256 88.3221 310.548L6.20299 207.172C4.84638 205.464 4.33821 203.229 4.8224 201.099L34.1304 72.1912C34.6146 70.0616 36.0384 68.2693 37.9986 67.3215L156.664 9.95179Z" fill="#009F76"/>
<mask id="mask0" mask-type="alpha" maskUnits="userSpaceOnUse" x="4" y="9" width="311" height="305">
<path fill-rule="evenodd" clip-rule="evenodd" d="M156.664 9.95179C158.625 9.00403 160.908 9.00402 162.869 9.95179L281.534 67.3215C283.495 68.2693 284.919 70.0616 285.403 72.1912L314.711 201.099C315.195 203.229 314.687 205.464 313.33 207.172L231.211 310.548C229.854 312.256 227.797 313.251 225.621 313.251H93.9122C91.7361 313.251 89.6787 312.256 88.3221 310.548L6.20299 207.172C4.84638 205.464 4.33821 203.229 4.8224 201.099L34.1304 72.1912C34.6146 70.0616 36.0384 68.2693 37.9986 67.3215L156.664 9.95179Z" fill="white"/>
</mask>
<g mask="url(#mask0)">
<path opacity="0.289629" fill-rule="evenodd" clip-rule="evenodd" d="M-59.5167 203.675L113.769 98.0061L230.485 217.95L91.9914 340.578L-59.5167 203.675Z" fill="black"/>
</g>
<path fill-rule="evenodd" clip-rule="evenodd" d="M202.474 93.8447C202.972 95.0958 203.238 96.447 203.238 97.8341V147.715C203.238 151.346 201.414 154.733 198.387 156.722L162.312 180.433C158.744 182.779 154.131 182.779 150.563 180.433L114.488 156.722C111.97 155.068 110.285 152.446 109.79 149.52L202.474 93.8447Z" fill="url(#paint0_linear)"/>
<path fill-rule="evenodd" clip-rule="evenodd" d="M202.963 156.713C202.138 158.136 200.986 159.371 199.572 160.3L163.497 184.011C159.929 186.357 155.316 186.357 151.748 184.011L115.673 160.3C112.646 158.311 110.823 154.924 110.823 151.292V101.412C110.823 100.022 111.09 98.6685 111.589 97.4153L202.963 156.713Z" fill="url(#paint1_linear)"/>
<path fill-rule="evenodd" clip-rule="evenodd" d="M86.881 131.967C86.18 133.412 85.7982 135.019 85.7982 136.682V210.383C85.7982 214.229 87.8423 217.784 91.1605 219.707L154.739 256.557C158.057 258.481 162.146 258.481 165.464 256.557L229.042 219.707C231.313 218.391 232.987 216.311 233.818 213.897L86.881 131.967Z" fill="url(#paint2_linear)"/>
<path fill-rule="evenodd" clip-rule="evenodd" d="M87.5899 216.34C88.4904 217.702 89.7027 218.862 91.1605 219.707L154.739 256.557C158.057 258.48 162.146 258.48 165.464 256.557L229.043 219.707C232.361 217.784 234.405 214.229 234.405 210.383V136.681C234.405 135.313 234.146 133.981 233.663 132.747L87.5899 216.34Z" fill="url(#paint3_linear)"/>
<defs>
<linearGradient id="paint0_linear" x1="239.57" y1="110.714" x2="174.075" y2="205.455" gradientUnits="userSpaceOnUse">
<stop stop-color="white"/>
<stop offset="1" stop-color="#439246"/>
</linearGradient>
<linearGradient id="paint1_linear" x1="235.479" y1="145.405" x2="150.083" y2="299.227" gradientUnits="userSpaceOnUse">
<stop stop-color="white"/>
<stop offset="1" stop-color="#439246"/>
</linearGradient>
<linearGradient id="paint2_linear" x1="49.7987" y1="160.303" x2="124.559" y2="281.373" gradientUnits="userSpaceOnUse">
<stop stop-color="white"/>
<stop offset="1" stop-color="#439246"/>
</linearGradient>
<linearGradient id="paint3_linear" x1="75.1949" y1="216.138" x2="168.121" y2="394.367" gradientUnits="userSpaceOnUse">
<stop stop-color="white"/>
<stop offset="1" stop-color="#439246"/>
</linearGradient>
</defs>
</svg>

<svg fill="none" viewBox="0 0 322 323" xmlns="http://www.w3.org/2000/svg"><path fill="#009F76" fill-rule="evenodd" d="M156.664 9.952a7.126 7.126 0 0 1 6.205 0l118.665 57.37a7.171 7.171 0 0 1 3.869 4.87l29.308 128.907a7.2 7.2 0 0 1-1.381 6.073l-82.119 103.376a7.14 7.14 0 0 1-5.59 2.703H93.912a7.14 7.14 0 0 1-5.59-2.703L6.203 207.172a7.2 7.2 0 0 1-1.38-6.073L34.13 72.191a7.173 7.173 0 0 1 3.87-4.87l118.665-57.37Z" clip-rule="evenodd"/><mask id="a" width="311" height="305" x="4" y="9" mask-type="alpha" maskUnits="userSpaceOnUse"><path fill="#fff" fill-rule="evenodd" d="M156.664 9.952a7.126 7.126 0 0 1 6.205 0l118.665 57.37a7.171 7.171 0 0 1 3.869 4.87l29.308 128.907a7.2 7.2 0 0 1-1.381 6.073l-82.119 103.376a7.14 7.14 0 0 1-5.59 2.703H93.912a7.14 7.14 0 0 1-5.59-2.703L6.203 207.172a7.2 7.2 0 0 1-1.38-6.073L34.13 72.191a7.173 7.173 0 0 1 3.87-4.87l118.665-57.37Z" clip-rule="evenodd"/></mask><g mask="url(#a)"><path fill="#000" fill-rule="evenodd" d="M-59.517 203.675 113.77 98.006 230.485 217.95 91.991 340.578-59.517 203.675Z" clip-rule="evenodd" opacity=".29"/></g><path fill="url(#b)" fill-rule="evenodd" d="M202.474 93.845c.498 1.25.764 2.602.764 3.99v49.88c0 3.631-1.824 7.018-4.851 9.007l-36.075 23.711a10.686 10.686 0 0 1-11.749 0l-36.075-23.711a10.763 10.763 0 0 1-4.698-7.202l92.684-55.675Z" clip-rule="evenodd"/><path fill="url(#c)" fill-rule="evenodd" d="M202.963 156.713a10.727 10.727 0 0 1-3.391 3.587l-36.075 23.711a10.686 10.686 0 0 1-11.749 0L115.673 160.3a10.776 10.776 0 0 1-4.85-9.008v-49.88c0-1.39.267-2.744.766-3.997l91.374 59.298Z" clip-rule="evenodd"/><path fill="url(#d)" fill-rule="evenodd" d="M86.881 131.967a10.794 10.794 0 0 0-1.083 4.715v73.701c0 3.846 2.044 7.401 5.362 9.324l63.579 36.85a10.686 10.686 0 0 0 10.725 0l63.578-36.85a10.758 10.758 0 0 0 4.776-5.81l-146.937-81.93Z" clip-rule="evenodd"/><path fill="url(#e)" fill-rule="evenodd" d="M87.59 216.34a10.727 10.727 0 0 0 3.57 3.367l63.579 36.85a10.69 10.69 0 0 0 10.725 0l63.579-36.85a10.775 10.775 0 0 0 5.362-9.324v-73.702c0-1.368-.259-2.7-.742-3.934L87.59 216.34Z" clip-rule="evenodd"/><defs><linearGradient id="b" x1="239.57" x2="174.075" y1="110.714" y2="205.455" gradientUnits="userSpaceOnUse"><stop stop-color="#fff"/><stop offset="1" stop-color="#439246"/></linearGradient><linearGradient id="c" x1="235.479" x2="150.083" y1="145.405" y2="299.227" gradientUnits="userSpaceOnUse"><stop stop-color="#fff"/><stop offset="1" stop-color="#439246"/></linearGradient><linearGradient id="d" x1="49.799" x2="124.559" y1="160.303" y2="281.373" gradientUnits="userSpaceOnUse"><stop stop-color="#fff"/><stop offset="1" stop-color="#439246"/></linearGradient><linearGradient id="e" x1="75.195" x2="168.121" y1="216.138" y2="394.367" gradientUnits="userSpaceOnUse"><stop stop-color="#fff"/><stop offset="1" stop-color="#439246"/></linearGradient></defs></svg>
